public/bg_creation_compte_fin.svg

<svg width="165" height="165" viewBox="0 0 165 165" fill="none" xmlns="http://www.w3.org/2000/svg">
<g clip-path="url(#clip0_8592_297390)">
<path d="M24.6211 69.8746L24.1098 69.5129L22.4136 36.8375L22.688 36.4509L45.8351 29.3047L46.334 29.6414L47.3193 41.3896C48.6412 40.9656 52.3078 39.9928 54.6276 41.4894C55.2371 41.9183 55.7313 42.491 56.0664 43.1567C56.4014 43.8225 56.5669 44.5606 56.5481 45.3057C56.8599 51.2421 50.3124 52.7886 48.741 53.1502L49.4145 62.0425L49.1525 62.4416L41.9315 64.7612L41.4327 64.4869C41.4327 64.4869 40.1855 59.7352 36.7808 60.3463C33.3761 60.9574 32.6777 67.0934 32.6652 67.1558L32.3908 67.4925L24.6211 69.8746ZM23.2243 37.0994L24.883 68.9766L31.9918 66.8191C32.1664 65.5719 33.1142 60.2341 36.706 59.5856C39.7241 59.0368 41.5075 61.9676 42.1311 63.8882L48.6163 61.7307L47.9553 52.8509L48.292 52.4269C49.6604 52.2266 50.9872 51.8054 52.2206 51.1797C53.3361 50.6965 54.2764 49.8824 54.9143 48.8474C55.5522 47.8125 55.8569 46.6067 55.7874 45.393C55.8066 44.7711 55.6734 44.154 55.3996 43.5953C55.1257 43.0367 54.7193 42.5535 54.216 42.1878C51.7217 40.579 47.1696 42.3125 47.1197 42.325L46.5959 42.0007L45.6107 30.2276L23.2243 37.0994Z" fill="black"/>
<path d="M79.2581 90.6152L101.906 88.9689L95.2216 60.1348L79.5574 61.2697L79.52 64.7243L79.4077 75.3376L79.2581 90.6152Z" fill="#F8C49E"/>
<path d="M79.4077 75.3374C82.4057 75.1345 85.3044 74.1805 87.8369 72.5633C90.3694 70.9462 92.4543 68.7178 93.8996 66.0835C89.2727 65.6969 84.6707 65.1356 80.0438 64.749H79.52L79.4077 75.3374Z" fill="black"/>
<path d="M112.471 49.8578C112.378 50.9613 111.993 52.02 111.355 52.9253C110.717 53.8305 109.85 54.5496 108.842 55.0085C107.743 55.4719 106.548 55.6617 105.36 55.5618C104.172 55.4619 103.026 55.0751 102.02 54.4348C101.39 58.5324 99.4105 62.3026 96.3953 65.1479C95.3532 66.1157 94.1974 66.9533 92.9531 67.6422H92.8659C88.7738 69.8799 83.9771 70.456 79.4714 69.251C78.6178 69.0123 77.7839 68.7079 76.9771 68.3406C74.454 67.1877 72.2368 65.4586 70.5039 63.2925C68.771 61.1264 67.5708 58.5837 66.9999 55.8691C66.1643 51.5539 66.9999 47.139 67.9353 42.8238C68.5296 39.5814 69.5399 36.4292 70.9409 33.4453C71 33.3167 71.0666 33.1918 71.1405 33.0711L71.2901 32.7967C71.85 31.7823 72.5146 30.8292 73.2731 29.9532L73.4976 29.7038C76.2189 26.8222 79.9209 25.0646 83.8739 24.7775C84.5798 24.7278 85.2882 24.7278 85.9941 24.7775C88.3694 24.9489 90.6874 25.588 92.8148 26.6581C94.9423 27.7283 96.8373 29.2084 98.3908 31.0133C101.499 34.6519 103.261 39.2494 103.379 44.0336C104.364 43.5108 105.468 43.2552 106.582 43.2924C107.696 43.3296 108.78 43.6583 109.727 44.2456L110.089 44.5075C110.89 45.1397 111.525 45.9569 111.94 46.8889C112.355 47.8209 112.537 48.8397 112.471 49.8578Z" fill="#F8C49E"/>
<path d="M105 51.6169L104.264 51.4173L104.539 46.4287H105.324L105.112 50.1078C105.687 49.573 106.408 49.2219 107.184 49.0997C107.959 48.9775 108.754 49.0897 109.465 49.4219L109.128 50.1203C108.391 49.7785 107.55 49.7342 106.781 49.9967C106.012 50.2593 105.374 50.8083 105 51.5296V51.6169Z" fill="black"/>
<path d="M80.305 54.6344C79.9849 54.6274 79.6733 54.53 79.4063 54.3535C79.1393 54.1769 78.9276 53.9284 78.7959 53.6366C78.6842 53.1482 78.6842 52.6409 78.7959 52.1525L79.7437 45.3057L80.517 45.4179L79.5691 52.2523C79.48 52.6296 79.48 53.0224 79.5691 53.3997C79.6512 53.5696 79.7934 53.7029 79.9682 53.7738C80.1761 53.8584 80.4089 53.8584 80.6168 53.7738L80.9161 54.4972C80.7235 54.5831 80.5158 54.6298 80.305 54.6344Z" fill="black"/>
<path d="M82.7759 58.0026H82.4766V57.2294C82.8815 57.2573 83.288 57.2032 83.6716 57.0703C84.0552 56.9374 84.408 56.7286 84.7089 56.4562C85.0036 56.178 85.2368 55.8412 85.3936 55.4674C85.5504 55.0937 85.6274 54.6913 85.6194 54.2861H86.405C86.405 55.2784 86.0109 56.2301 85.3092 56.9317C84.6076 57.6334 83.6559 58.0276 82.6636 58.0276L82.7759 58.0026Z" fill="black"/>
<path d="M86.2306 46.3663C86.2306 46.965 86.6421 47.4264 87.0412 47.4015C87.4403 47.3765 87.7271 46.8652 87.6772 46.2666C87.6274 45.6679 87.2781 45.2065 86.879 45.2314C86.48 45.2564 86.1932 45.8301 86.2306 46.3663Z" fill="black"/>
<path d="M73.6097 46.0665C73.6097 46.6652 74.0212 47.1266 74.4203 47.1017C74.8194 47.0767 75.1063 46.5654 75.0564 45.9668C75.0065 45.3681 74.6573 44.9067 74.2582 44.9316C73.8591 44.9566 73.5723 45.4679 73.6097 46.0665Z" fill="black"/>
<path d="M88.2511 42.9986C88.6215 43.0735 89.0031 43.0735 89.3735 42.9986C89.997 42.7491 90.0345 42.0882 89.4733 41.6641C88.8364 41.2741 88.1115 41.0511 87.3656 41.0156C86.8314 40.9029 86.2749 40.9687 85.7817 41.2027C85.5908 41.3408 85.4583 41.5451 85.4099 41.7757C85.3615 42.0062 85.4006 42.2466 85.5198 42.4498C86.0311 43.3353 87.3905 42.9487 88.2511 42.9986Z" fill="black"/>
<path d="M73.4096 42.9991C73.0441 43.0804 72.6651 43.0804 72.2996 42.9991C71.6636 42.7497 71.6387 42.0887 72.1999 41.6647C72.8398 41.273 73.5702 41.0538 74.32 41.0286C74.8516 40.9226 75.4032 40.9927 75.8914 41.2282C76.0846 41.3645 76.219 41.5689 76.2676 41.8003C76.3162 42.0316 76.2754 42.2728 76.1533 42.4753C75.6046 43.3359 74.2826 42.9617 73.4096 42.9991Z" fill="black"/>
<path d="M103.328 43.984C99.8734 43.8718 96.4438 37.9603 94.9347 33.7324C88.7289 35.8704 82.1101 36.5322 75.6038 35.6655C73.8665 35.4184 72.2425 34.6584 70.9395 33.483L70.7898 33.3333C69.9438 32.4637 69.351 31.3798 69.075 30.1983C68.7991 29.0168 68.8505 27.7825 69.2238 26.628C69.597 25.4736 70.278 24.4428 71.1934 23.6465C72.1089 22.8503 73.224 22.3187 74.419 22.1089C77.7959 21.8355 81.1568 22.8021 83.8725 24.8277C84.5783 24.778 85.2868 24.778 85.9926 24.8277C88.3679 24.999 90.6859 25.6381 92.8134 26.7083C94.9409 27.7784 96.8358 29.2585 98.3893 31.0635C101.459 34.6825 103.201 39.2405 103.328 43.984Z" fill="#D4F5BD"/>
<path d="M47.6917 102.239C47.6917 102.239 55.3492 88.8816 60.3003 84.6787C65.2515 80.4758 79.2571 81.2116 79.2571 81.2116C84.8443 96.0527 100.11 81.2116 100.11 81.2116C100.11 81.2116 118.68 80.9622 125.851 84.6662C133.022 88.3703 144.645 142.297 144.645 142.297H62.7698" fill="#A1E3D6"/>
<path d="M87.5147 108.674C87.5147 108.674 69.7053 142.559 43.2407 138.356C16.7762 134.153 14.8057 82.234 14.8057 82.234L34.7601 71.1094L49.9754 99.5195" fill="#A1E3D6"/>
<path d="M129.12 67.7919C132.653 67.7919 135.517 64.9274 135.517 61.394C135.517 57.8605 132.653 54.9961 129.12 54.9961C125.586 54.9961 122.722 57.8605 122.722 61.394C122.722 64.9274 125.586 67.7919 129.12 67.7919Z" fill="#6CC485"/>
<path d="M17.661 51.4424C15.5284 51.8165 16.2393 59.0874 16.9501 63.9139Z" fill="#F8C49E"/>
<path d="M16.9886 63.8641C16.0408 60.3471 14.1326 54.5603 11.8877 55.134C8.45806 55.9322 13.8458 78.1689 13.8458 78.1689L14.8436 82.2845L34.798 71.1599C32.0792 65.5352 35.9204 60.4344 33.5508 59.5739C31.1813 58.7133 28.9613 64.5625 28.9613 64.5625C28.9613 64.5625 26.4046 51.8664 23.6609 52.3902C22.3015 52.6397 22.4138 57.3789 22.5509 60.1849C21.3038 56.4435 19.2833 51.2054 17.8117 51.4549" fill="#F8C49E"/>
<path d="M22.1266 61.619C21.5779 52.3277 22.9872 52.0658 23.4486 51.9785L23.5858 52.7393C23.5858 52.7393 22.4135 53.2007 22.9124 61.5691L22.1266 61.619Z" fill="black"/>
<path d="M16.5638 63.9138C15.3166 55.5953 15.6658 51.4423 17.5865 51.0557L17.7237 51.8289C16.701 52.0035 16.065 55.2461 17.3371 63.8016L16.5638 63.9138Z" fill="black"/>
<path d="M59.9654 136.049C58.9472 138.272 57.666 140.366 56.1491 142.284H23.0871C20.8783 139.83 19.1823 136.96 18.0985 133.841C17.213 130.586 17.8864 126.645 20.5928 124.65C21.5169 123.968 22.6095 123.552 23.7529 123.445C24.8963 123.339 26.0471 123.546 27.0812 124.045C28.1154 124.544 28.9938 125.316 29.6218 126.278C30.2497 127.239 30.6034 128.354 30.6448 129.501C30.9633 124.25 33.0971 119.272 36.681 115.421C38.4902 113.53 40.7541 112.135 43.2563 111.368C45.7586 110.602 48.4156 110.49 50.9734 111.043C53.3971 111.758 55.6023 113.07 57.387 114.859C59.1716 116.648 60.4785 118.857 61.1876 121.282C62.5693 126.191 62.1354 131.434 59.9654 136.049Z" fill="#90D470"/>
<path d="M35.5591 142.522L34.9854 141.986C35.3096 141.637 42.9796 133.43 48.6292 135.027C50.8242 135.638 52.3706 137.633 53.2811 140.963C54.2559 138.46 55.511 136.075 57.0225 133.854C60.764 128.417 65.4533 125.748 70.4544 126.134V126.908C59.0429 126.022 53.6427 142.273 53.5929 142.435H52.8321C52.0713 138.693 50.5997 136.411 48.4421 135.812C43.1791 134.378 35.6963 142.435 35.5591 142.522Z" fill="black"/>
<path d="M10.6274 142.309C10.6274 142.309 24.7078 124.488 28.1624 142.309H10.6274Z" fill="#6987F3"/>
<path d="M130.553 70.4738H113.23L112.894 69.9001L121.3 54.8096H121.986L130.89 69.8876L130.553 70.4738ZM113.892 69.7006H129.868L121.649 55.8073L113.892 69.7006Z" fill="black"/>
<path d="M16.3394 107.689C15.1796 107.692 14.0451 107.35 13.0795 106.707C12.1139 106.065 11.3607 105.15 10.9151 104.079C10.4695 103.008 10.3517 101.829 10.5764 100.692C10.8012 99.5537 11.3585 98.5081 12.1778 97.6871C12.9971 96.8661 14.0414 96.3066 15.1788 96.0794C16.3162 95.8522 17.4954 95.9675 18.5672 96.4108C19.639 96.8541 20.5552 97.6054 21.1999 98.5696C21.8445 99.5338 22.1886 100.668 22.1886 101.827C22.1853 103.379 21.5684 104.866 20.4725 105.964C19.3767 107.062 17.8909 107.682 16.3394 107.689ZM16.3394 96.7515C15.332 96.749 14.3465 97.0457 13.5078 97.6039C12.6691 98.162 12.015 98.9566 11.6284 99.8869C11.2417 100.817 11.1398 101.841 11.3357 102.83C11.5317 103.818 12.0166 104.726 12.729 105.438C13.4413 106.15 14.3492 106.635 15.3374 106.831C16.3256 107.027 17.3497 106.925 18.28 106.539C19.2103 106.152 20.0049 105.498 20.563 104.659C21.1212 103.82 21.4178 102.835 21.4154 101.827C21.4154 100.481 20.8806 99.1901 19.9286 98.2382C18.9767 97.2863 17.6856 96.7515 16.3394 96.7515Z" fill="black"/>
<path d="M51.2984 103.361L46.3597 102.127L46.2475 101.416L49.4027 99.3954L34.3621 71.297L35.048 70.9229L50.2633 99.3455L50.1261 99.8568L47.4198 101.59L51.4979 102.613L51.2984 103.361Z" fill="black"/>
<path d="M22.3259 66.3831L20.6172 33.7077L43.7643 26.5615L44.787 38.8086C44.787 38.8086 53.6169 35.4038 53.9785 42.2133C54.3153 48.686 46.1464 49.6962 46.1464 49.6962L46.8324 58.8877L39.6862 61.2698C39.6862 61.2698 38.3143 56.1689 34.5728 56.8549C30.8314 57.5408 30.1455 64.0011 30.1455 64.0011L22.3259 66.3831Z" fill="#13BF89"/>
<path d="M130.324 129.868H72.9922L95.9149 143.026H153.259L130.324 129.868Z" fill="#424D99"/>
<path d="M87.6695 132.598L87.2849 133.269L96.7733 138.709L97.1579 138.038L87.6695 132.598Z" fill="black"/>
<path d="M162.426 101.895H105.095L95.9155 143.026H153.26L162.426 101.895Z" fill="#424D99"/>
<path d="M104.717 101.817L95.5454 142.948L96.3123 143.119L105.484 101.988L104.717 101.817Z" fill="black"/>
<path d="M134.428 122.46C134.428 123.499 134.12 124.514 133.543 125.378C132.966 126.241 132.146 126.914 131.187 127.311C130.227 127.709 129.171 127.813 128.153 127.61C127.134 127.408 126.199 126.907 125.465 126.173C124.73 125.439 124.23 124.503 124.028 123.485C123.825 122.466 123.929 121.411 124.326 120.451C124.724 119.492 125.397 118.672 126.26 118.095C127.124 117.518 128.139 117.21 129.177 117.21C130.57 117.21 131.905 117.763 132.89 118.748C133.875 119.732 134.428 121.068 134.428 122.46Z" fill="white"/>
<path d="M129.178 125.978H128.978V125.192C129.338 125.218 129.699 125.17 130.04 125.052C130.381 124.934 130.694 124.748 130.961 124.506C131.508 124.021 131.84 123.34 131.884 122.61H132.657C132.603 123.507 132.21 124.349 131.556 124.966C130.903 125.582 130.039 125.926 129.14 125.928L129.178 125.978Z" fill="black"/>
<path d="M160.872 105.618C160.874 106.458 160.628 107.279 160.163 107.978C159.699 108.677 159.038 109.222 158.263 109.545C157.488 109.868 156.635 109.954 155.812 109.791C154.989 109.629 154.232 109.226 153.638 108.634C153.043 108.041 152.638 107.286 152.474 106.463C152.309 105.64 152.392 104.787 152.713 104.011C153.033 103.236 153.577 102.573 154.275 102.106C154.972 101.64 155.792 101.391 156.632 101.391C157.754 101.391 158.831 101.836 159.626 102.628C160.42 103.421 160.869 104.496 160.872 105.618Z" fill="#A1E3D6"/>
</g>
<defs>
<clipPath id="clip0_8592_297390">
<rect width="165" height="165" fill="white"/>
</clipPath>
</defs>
</svg>

<svg xmlns="http://www.w3.org/2000/svg" width="165" height="165" fill="none"><g clip-path="url(#a)"><path fill="#000" d="m24.621 69.875-.511-.362-1.696-32.676.274-.386 23.147-7.146.499.336.985 11.749c1.322-.424 4.989-1.397 7.309.1a4.53 4.53 0 0 1 1.92 3.816c.312 5.936-6.236 7.483-7.807 7.844l.673 8.892-.261.4-7.221 2.32-.5-.275s-1.247-4.752-4.651-4.14c-3.405.61-4.103 6.746-4.116 6.809l-.274.337zm-1.397-32.776 1.659 31.878 7.109-2.158c.174-1.247 1.122-6.585 4.714-7.233 3.018-.55 4.801 2.382 5.425 4.302l6.485-2.157-.66-8.88.336-.424c1.368-.2 2.695-.622 3.929-1.247a5.94 5.94 0 0 0 3.566-5.787 3.82 3.82 0 0 0-1.571-3.205c-2.494-1.609-7.046.124-7.096.137l-.524-.324-.985-11.773z"/><path fill="#F8C49E" d="m79.258 90.615 22.648-1.646-6.684-28.834-15.665 1.135-.037 3.454-.112 10.614z"/><path fill="#000" d="M79.408 75.337A17.91 17.91 0 0 0 93.9 66.083c-4.627-.386-9.23-.947-13.856-1.334h-.524z"/><path fill="#F8C49E" d="M112.471 49.858a6.23 6.23 0 0 1-3.629 5.15 7.37 7.37 0 0 1-6.822-.573 18.62 18.62 0 0 1-5.625 10.713 17.6 17.6 0 0 1-3.442 2.494h-.087a18.15 18.15 0 0 1-13.395 1.609 17 17 0 0 1-2.494-.91A17.72 17.72 0 0 1 67 55.869c-.836-4.315 0-8.73.935-13.045a38.3 38.3 0 0 1 3.006-9.379q.089-.192.2-.374l.15-.274a16.6 16.6 0 0 1 1.982-2.844l.225-.25a15.85 15.85 0 0 1 10.376-4.925q1.06-.075 2.12 0a18.07 18.07 0 0 1 12.397 6.235 20.84 20.84 0 0 1 4.988 13.02 6.38 6.38 0 0 1 6.348.213l.362.261a6.3 6.3 0 0 1 2.382 5.35"/><path fill="#000" d="m105 51.617-.736-.2.275-4.988h.785l-.212 3.679a3.94 3.94 0 0 1 4.353-.686l-.337.698A3.156 3.156 0 0 0 105 51.53zm-24.695 3.017a1.7 1.7 0 0 1-1.51-.997 3.3 3.3 0 0 1 0-1.484l.949-6.847.773.112-.948 6.834c-.089.378-.089.77 0 1.148a.76.76 0 0 0 .4.374.86.86 0 0 0 .648 0l.3.723a1.6 1.6 0 0 1-.612.137m2.471 3.369h-.3v-.774a3.02 3.02 0 0 0 2.233-.773 2.9 2.9 0 0 0 .91-2.17h.786a3.74 3.74 0 0 1-3.741 3.742zm3.454-11.637c0 .599.412 1.06.811 1.035s.686-.536.636-1.134c-.05-.6-.399-1.06-.798-1.036s-.686.6-.648 1.135m-12.621-.299c0 .598.411 1.06.81 1.035s.686-.537.636-1.135c-.05-.599-.399-1.06-.798-1.035s-.686.536-.648 1.134m14.641-3.067c.37.075.752.075 1.123 0 .623-.25.66-.91.1-1.335a4.44 4.44 0 0 0-2.108-.648 2.5 2.5 0 0 0-1.584.187.947.947 0 0 0-.262 1.247c.511.885 1.87.499 2.731.549M73.41 43a2.6 2.6 0 0 1-1.11 0c-.636-.25-.661-.911-.1-1.335a4.34 4.34 0 0 1 2.12-.636 2.5 2.5 0 0 1 1.571.2.935.935 0 0 1 .262 1.246c-.548.86-1.87.487-2.743.524"/><path fill="#D4F5BD" d="M103.328 43.984c-3.455-.112-6.884-6.024-8.393-10.252a42.2 42.2 0 0 1-19.331 1.934 8.8 8.8 0 0 1-4.665-2.183l-.15-.15a6.672 6.672 0 0 1 3.63-11.224 13.93 13.93 0 0 1 9.454 2.719q1.06-.075 2.12 0a18.07 18.07 0 0 1 12.396 6.236 20.84 20.84 0 0 1 4.939 12.92"/><path fill="#A1E3D6" d="M47.692 102.239s7.657-13.357 12.608-17.56 18.957-3.467 18.957-3.467c5.587 14.84 20.853 0 20.853 0s18.57-.25 25.741 3.454 18.794 57.631 18.794 57.631H62.77"/><path fill="#A1E3D6" d="M87.515 108.674s-17.81 33.885-44.274 29.682-28.435-56.122-28.435-56.122L34.76 71.109l15.215 28.41"/><path fill="#6CC485" d="M129.12 67.792a6.397 6.397 0 0 0 6.397-6.398 6.397 6.397 0 1 0-12.795 0 6.4 6.4 0 0 0 6.398 6.398"/><path fill="#F8C49E" d="M17.661 51.442c-2.133.374-1.422 7.645-.71 12.472Z"/><path fill="#F8C49E" d="M16.989 63.864c-.948-3.517-2.856-9.304-5.101-8.73-3.43.798 1.958 23.035 1.958 23.035l.998 4.115L34.798 71.16c-2.719-5.625 1.122-10.726-1.247-11.586s-4.59 4.989-4.59 4.989-2.556-12.697-5.3-12.173c-1.36.25-1.247 4.989-1.11 7.795-1.247-3.742-3.268-8.98-4.74-8.73"/><path fill="#000" d="M22.127 61.619c-.55-9.291.86-9.553 1.322-9.64l.137.76s-1.172.462-.674 8.83zm-5.563 2.295c-1.247-8.319-.898-12.472 1.023-12.858l.137.773c-1.023.175-1.659 3.417-.387 11.973z"/><path fill="#90D470" d="M59.965 136.049a30.6 30.6 0 0 1-3.816 6.235H23.087a24.8 24.8 0 0 1-4.988-8.443c-.886-3.255-.213-7.196 2.494-9.191a6.311 6.311 0 0 1 10.052 4.851 22.7 22.7 0 0 1 6.036-14.08 15.31 15.31 0 0 1 14.292-4.378 15.09 15.09 0 0 1 10.215 10.239 21.2 21.2 0 0 1-1.223 14.767"/><path fill="#000" d="m35.56 142.522-.575-.536c.325-.349 7.995-8.556 13.644-6.959 2.195.611 3.742 2.606 4.652 5.936a35.6 35.6 0 0 1 3.742-7.109c3.741-5.437 8.43-8.106 13.431-7.72v.774c-11.411-.886-16.811 15.365-16.861 15.527h-.76c-.762-3.742-2.233-6.024-4.39-6.623-5.264-1.434-12.747 6.623-12.884 6.71"/><path fill="#6987F3" d="M10.627 142.309s14.08-17.821 17.535 0z"/><path fill="#000" d="M130.553 70.474H113.23l-.336-.574 8.406-15.09h.686l8.904 15.078zm-16.661-.773h15.976l-8.219-13.894zM16.34 107.689a5.858 5.858 0 0 1-5.763-6.997 5.861 5.861 0 0 1 11.612 1.135 5.873 5.873 0 0 1-5.85 5.862m0-10.937a5.088 5.088 0 1 0 5.075 5.075 5.075 5.075 0 0 0-5.076-5.076m34.96 6.61-4.938-1.234-.112-.711 3.155-2.02-15.04-28.099.685-.374 15.215 28.423-.137.51-2.706 1.734 4.078 1.023z"/><path fill="#13BF89" d="m22.326 66.383-1.709-32.675 23.147-7.146 1.023 12.247s8.83-3.405 9.191 3.404c.337 6.473-7.832 7.483-7.832 7.483l.686 9.192-7.146 2.382s-1.372-5.101-5.113-4.415S30.145 64 30.145 64z"/><path fill="#424D99" d="M130.324 129.868H72.992l22.923 13.158h57.344z"/><path fill="#000" d="m87.67 132.598-.385.671 9.488 5.44.385-.671z"/><path fill="#424D99" d="M162.426 101.895h-57.331l-9.18 41.131h57.345z"/><path fill="#000" d="m104.717 101.817-9.172 41.131.767.171 9.172-41.131z"/><path fill="#fff" d="M134.428 122.46a5.25 5.25 0 0 1-3.241 4.851 5.24 5.24 0 0 1-5.722-1.138 5.252 5.252 0 0 1 3.712-8.963 5.25 5.25 0 0 1 5.251 5.25"/><path fill="#000" d="M129.178 125.978h-.2v-.786a2.66 2.66 0 0 0 1.983-.686 2.75 2.75 0 0 0 .923-1.896h.773a3.53 3.53 0 0 1-3.517 3.318z"/><path fill="#A1E3D6" d="M160.872 105.618a4.24 4.24 0 1 1-8.481.025 4.24 4.24 0 0 1 8.481-.025"/></g><defs><clipPath id="a"><path fill="#fff" d="M0 0h165v165H0z"/></clipPath></defs></svg>
